-- test.tidal
setcps (80/60/4)

d1 $ sound "arpy(3,8)" # n (every 4 (* 2) "0 2")

d1 $ euclid 5 8 $ sound "bd"

d1 $ sound "bd(5,8,2)"

d1 $ sound "bd([5 3]/2,8)"

d1 $ sound "bd(7,16,14)"

d1 $ n "0 2 3" # s "arpy"

d1 $ sound "bd*16" # pan sine

d1 $ sound "arpy*4" # pan (rand)

d1 $ fastcat [ sound "bd sn:2" # vowel "[a o]/2"
             , sound "casio casio:1 casio:2*2"
             ]

d1 $ every 4 (slow 2) $ whenmod 5 3 (# speed "0.75 1.5") $ stack [
              sound "bd bd*2",
              sound "hh*2 [sn cp] cp future*4",
              sound (samples "arpy*8" (run 16))
             ] # speed "[[1 0.8], [1.5 2]*2]/3"

d1 $ n "<[a5,cs5,e5,g5]*3 [d5,fs5,g5,c5]>" # s "supersquare" # gain "0.7"

d1 $ s "supernoise/8" # midinote ((irand 10) + 30) # sustain "8"
 # accelerate "0.5" # voice "0.5" # pitch1 "0.15" # slide "-0.5" # resonance "0.7"
 # attack "1" # release "20" # room "0.9" # size "0.9" # orbit "1"


d1 $ every 16 (density 24 . (|+| midinote "24") . (# sustain "0.3") . (# attack "0.05"))
  $ s "supercomparator/4" # midinote ((irand 24) + 24)
  # sustain "8" # attack "0.5" # hold "4" # release "4"
  # voice "0.5" # resonance "0.9" # lfo "1" # speed "30" # pitch1 "4"


-- supergong
d1 $ n (off 0.125 (+12) $ off 0.25 (+7) $ slow 2 $ "0(3,8) [5 7]") # sound "supergong"
